liquidity/lib/useFundingRateVaultData/eth-usdc.svg

<svg width="40" height="40" viewBox="0 0 40 40" fill="none" xmlns="http://www.w3.org/2000/svg">
    <g clip-path="url(#clip0_27112_8761)">
        <path
            d="M20 40C31.0834 40 40 31.0834 40 20C40 8.9166 31.0834 0 20 0C8.9166 0 0 8.9166 0 20C0 31.0834 8.9166 40 20 40Z"
            fill="#6B59FF" />
        <path
            d="M25.5006 23.1666C25.5006 20.25 23.7506 19.25 20.2506 18.8334C17.7506 18.5 17.2506 17.8334 17.2506 16.6666C17.2506 15.4998 18.084 14.75 19.7506 14.75C21.2506 14.75 22.084 15.25 22.5006 16.5C22.584 16.75 22.834 16.9166 23.084 16.9166H24.4172C24.7506 16.9166 25.0006 16.6666 25.0006 16.3334V16.25C24.6672 14.4166 23.1672 13 21.2506 12.8334V10.8334C21.2506 10.5 21.0006 10.25 20.584 10.1666H19.334C19.0006 10.1666 18.7506 10.4166 18.6672 10.8334V12.75C16.1672 13.0834 14.584 14.75 14.584 16.8334C14.584 19.5834 16.2506 20.6666 19.7506 21.0834C22.084 21.5 22.834 22 22.834 23.3334C22.834 24.6668 21.6672 25.5834 20.084 25.5834C17.9172 25.5834 17.1672 24.6666 16.9172 23.4166C16.834 23.0834 16.584 22.9166 16.334 22.9166H14.9172C14.584 22.9166 14.334 23.1666 14.334 23.5V23.5834C14.6672 25.6666 16.0006 27.1666 18.7506 27.5834V29.5834C18.7506 29.9166 19.0006 30.1666 19.4172 30.25H20.6672C21.0006 30.25 21.2506 30 21.334 29.5834V27.5834C23.834 27.1666 25.5006 25.4166 25.5006 23.1666Z"
            fill="white" />
        <path
            d="M15.7497 31.9166C9.24967 29.5834 5.91627 22.3334 8.33307 15.9166C9.58307 12.4166 12.3331 9.74999 15.7497 8.49999C16.0831 8.33339 16.2497 8.08339 16.2497 7.66659V6.49999C16.2497 6.16659 16.0831 5.91659 15.7497 5.83339C15.6663 5.83339 15.4997 5.83339 15.4163 5.91659C7.49967 8.41659 3.16627 16.8334 5.66627 24.75C7.16627 29.4166 10.7497 33 15.4163 34.5C15.7497 34.6666 16.0831 34.5 16.1663 34.1666C16.2497 34.0834 16.2497 34 16.2497 33.8334V32.6666C16.2497 32.4166 15.9997 32.0834 15.7497 31.9166ZM24.5831 5.91659C24.2497 5.74999 23.9163 5.91659 23.8331 6.24999C23.7497 6.33339 23.7497 6.41659 23.7497 6.58339V7.74999C23.7497 8.08339 23.9997 8.41659 24.2497 8.58339C30.7497 10.9166 34.0831 18.1666 31.6663 24.5834C30.4163 28.0834 27.6663 30.75 24.2497 32C23.9163 32.1666 23.7497 32.4166 23.7497 32.8334V34C23.7497 34.3334 23.9163 34.5834 24.2497 34.6666C24.3331 34.6666 24.4997 34.6666 24.5831 34.5834C32.4997 32.0834 36.8331 23.6666 34.3331 15.75C32.8331 11 29.1663 7.41659 24.5831 5.91659Z"
            fill="white" />
    </g>
    <defs>
        <clipPath id="clip0_27112_8761">
            <rect width="40" height="40" fill="white" />
        </clipPath>
    </defs>
</svg>

<svg width="40" height="40" fill="none" viewBox="0 0 40 40" xmlns="http://www.w3.org/2000/svg">
  <g clip-path="url(#a)">
    <path fill="#6B59FF" d="M20 40c11.083 0 20-8.917 20-20S31.083 0 20 0 0 8.917 0 20s8.917 20 20 20"/>
    <path fill="#fff" d="M25.5 23.167c0-2.917-1.75-3.917-5.25-4.334-2.5-.333-3-1-3-2.166 0-1.167.834-1.917 2.5-1.917 1.5 0 2.334.5 2.75 1.75.084.25.334.417.584.417h1.333a.57.57 0 0 0 .584-.584v-.083a4.16 4.16 0 0 0-3.75-3.417v-2c0-.333-.25-.583-.667-.666h-1.25c-.333 0-.583.25-.667.666v1.917c-2.5.333-4.083 2-4.083 4.083 0 2.75 1.667 3.834 5.167 4.25 2.333.417 3.083.917 3.083 2.25 0 1.334-1.167 2.25-2.75 2.25-2.167 0-2.917-.916-3.167-2.166-.083-.334-.333-.5-.583-.5h-1.417a.57.57 0 0 0-.583.583v.083c.333 2.084 1.667 3.584 4.417 4v2c0 .334.25.584.666.667h1.25c.334 0 .584-.25.667-.667v-2c2.5-.416 4.167-2.166 4.167-4.416"/>
    <path fill="#fff" d="M15.75 31.917c-6.5-2.334-9.834-9.584-7.417-16 1.25-3.5 4-6.167 7.417-7.417.333-.167.5-.417.5-.833V6.5c0-.333-.167-.583-.5-.667-.084 0-.25 0-.334.084-7.916 2.5-12.25 10.916-9.75 18.833a14.99 14.99 0 0 0 9.75 9.75c.334.167.667 0 .75-.333.084-.084.084-.167.084-.334v-1.166c0-.25-.25-.584-.5-.75m8.833-26c-.333-.167-.667 0-.75.333-.083.083-.083.167-.083.333V7.75c0 .333.25.667.5.833 6.5 2.334 9.833 9.584 7.416 16-1.25 3.5-4 6.167-7.416 7.417-.334.167-.5.417-.5.833V34c0 .333.166.583.5.667.083 0 .25 0 .333-.084 7.917-2.5 12.25-10.916 9.75-18.833-1.5-4.75-5.167-8.333-9.75-9.833"/>
  </g>
  <defs>
    <clipPath id="a">
      <path fill="#fff" d="M0 0h40v40H0z"/>
    </clipPath>
  </defs>
</svg>
